X:227
T: Buchsbaum und Felbinger
N: A0273A
O: Europa, Mitteleuropa, Deutschland
N: Finck 1536 No. 46
R: Romanze, Ballade, Lied
M: 6/2
L: 1/4
K: G
G2 | G4G4A2B2 | c4c2c4
c2 | c4c4B2A2 | B2A2G2A4
A2 | =F4^F2E4E2 | D3E=F2G4
G2 | c2B2A2G2 | A4G4

@@@ Tune index: 227
